common/svg/lock-icon.svg

<svg fill="none" height="20" viewBox="0 0 20 20" width="20" xmlns="http://www.w3.org/2000/svg"><g fill="#000"><path d="m4.99819 5.81393v-.45105c0-1.33704.48327-2.60964 1.38536-3.54395.88599-.966532 2.09415-1.482016 3.35065-1.482016h.16108c2.62572 0 4.73602 2.255236 4.73602 5.025966v1.90084c-.6121-.24163-1.3532-.32217-2.0297-.28996v-1.61088c0-1.57867-1.2082-2.86738-2.69021-2.86738h-.17719c-1.49813 0-2.70629 1.28871-2.70629 2.86738v.43494c0 .5477-.38662 1.01486-.9021 1.06318h-.01611c-.14245.01839-.28721.0048-.42375-.03979-.13654-.04458-.26143-.11904-.36558-.21795-.10572-.10524-.18882-.23097-.24422-.36947s-.08193-.28686-.07796-.43597z"/><path d="m16.9993 17.7934v-7.7c.0069-.25518-.0742-.50492-.2296-.70733-.1555-.2024-.3759-.34514-.6242-.40423l-.0967-.01611c-4.1572-.83745-8.4398-.83745-12.59708 0l-.08055.01611c-.25127.05589-.47536.19726-.634.39997-.15865.20271-.24202.45421-.23588.71159v7.7c0 .5316.3544.9987.86988 1.1115l.64436.1289c3.78546.7593 7.68407.7593 11.46947 0l.6444-.1289c.2541-.0564.4803-.2001.6392-.4062.159-.2061.2406-.4614.2307-.7214z"/></g></svg>

<svg width="20" height="20" viewBox="0 0 20 20" fill="none" xmlns="http://www.w3.org/2000/svg">
<path d="M4.99819 5.81393V5.36288C4.99819 4.02584 5.48146 2.75324 6.38355 1.81893C7.26954 0.852398 8.4777 0.336914 9.7342 0.336914H9.89528C12.521 0.336914 14.6313 2.59215 14.6313 5.36288V7.26372C14.0192 7.02209 13.2781 6.94155 12.6016 6.97376V5.36288C12.6016 3.78421 11.3934 2.4955 9.91139 2.4955H9.7342C8.23607 2.4955 7.02791 3.78421 7.02791 5.36288V5.79782C7.02791 6.34552 6.64129 6.81268 6.12581 6.861H6.1097C5.96725 6.87939 5.82249 6.8658 5.68595 6.82121C5.54941 6.77663 5.42452 6.70217 5.32037 6.60326C5.21465 6.49802 5.13155 6.37229 5.07615 6.23379C5.02075 6.09529 4.99422 5.94693 4.99819 5.79782V5.81393Z" fill="black"/>
<path d="M16.9993 17.7934V10.0934C17.0062 9.83822 16.9251 9.58848 16.7697 9.38607C16.6142 9.18367 16.3938 9.04093 16.1455 8.98184L16.0488 8.96573C11.8916 8.12828 7.609 8.12828 3.45172 8.96573L3.37117 8.98184C3.1199 9.03773 2.89581 9.1791 2.73717 9.38181C2.57852 9.58452 2.49515 9.83602 2.50129 10.0934V17.7934C2.50129 18.325 2.85569 18.7921 3.37117 18.9049L4.01553 19.0338C7.80099 19.7931 11.6996 19.7931 15.485 19.0338L16.1294 18.9049C16.3835 18.8485 16.6097 18.7048 16.7686 18.4987C16.9276 18.2926 17.0092 18.0373 16.9993 17.7773V17.7934Z" fill="black"/>
</svg>
